X: 1191
T: The Morning Star
M:C|
L:1/8
R:Reel
B:O'Neill's 1191
N:Collected by F. O'Neill
Z:Transcribed by Trish O'Nei
K:G
(GA) \
| B2 T(BA) BGEF | GABd efed | B2 T(BA) BGEG | FGAF "end"G2 :|
(GA) \
| Bdef g2(eg) | Tf2(df) edBA | Bdef g2(fg) | agfg e2z2 |
| Bdef g2(eg) | Tf2(df) edBA | Bdd^c d2(ef) | geaf {a}gfed |]


